X: 18069
T: Humours Of Ballingarry, The
R: jig
M: 6/8
K: Gmajor
|:BGG dGG|cAG FGA|BAG B/c/dB|cAF G2A|
BGG dGG|cAG FGA|def gdB|1 cAF G2A:|2 cAF G2B||
|:def ~g3|edc BAG|A2a aga|bge edB|
def ~g3|edc BAB|GBd gdB|1 cAF GBc:|2 cAF G2A||

